blockchains/ethereum/assets/0x9D65fF81a3c488d585bBfb0Bfe3c7707c7917f54/logo.svg

<svg fill="none" height="250" viewBox="0 0 250 250" width="250" xmlns="http://www.w3.org/2000/svg" xmlns:xlink="http://www.w3.org/1999/xlink"><clipPath id="a"><path d="m62.5 31.25h125v177.083h-125z"/></clipPath><rect fill="#fff" height="250" rx="125" width="250"/><g clip-path="url(#a)" fill="#1ba5f8"><path d="m98.2958 171.289 22.2092-27.528c.542-.674 1.227-1.218 2.004-1.592.778-.374 1.629-.567 2.491-.567s1.713.193 2.49.567c.778.374 1.463.918 2.004 1.592l22.204 27.528c.841 1.037 1.301 2.335 1.301 3.675 0 1.339-.46 2.637-1.301 3.675l-22.204 27.528c-.541.674-1.226 1.218-2.004 1.591-.777.374-1.628.568-2.49.568s-1.713-.194-2.491-.568c-.777-.373-1.462-.917-2.004-1.591l-22.2028-27.528c-.8426-1.037-1.3035-2.335-1.3046-3.674-.0012-1.339.4574-2.638 1.2982-3.676z" opacity=".62"/><path d="m132.796 103.966 22.203-27.5341c.542-.6742 1.227-1.2181 2.004-1.5917.778-.3736 1.629-.5676 2.491-.5676s1.713.194 2.49.5676c.778.3736 1.463.9175 2.004 1.5917l22.216 27.5341c.84 1.037 1.299 2.334 1.299 3.672s-.459 2.635-1.299 3.672l-22.203 27.534c-.542.674-1.226 1.218-2.004 1.592s-1.629.567-2.49.567c-.862 0-1.713-.193-2.491-.567-.777-.374-1.462-.918-2.004-1.592l-22.203-27.534c-.842-1.036-1.303-2.332-1.305-3.67-.003-1.337.454-2.635 1.292-3.674zm-68.9977 0 22.2031-27.5341c.5417-.6742 1.2264-1.2181 2.0041-1.5917s1.6286-.5676 2.4904-.5676 1.7128.194 2.4904.5676c.7777.3736 1.4625.9175 2.0042 1.5917l22.2155 27.5341c.84 1.037 1.299 2.334 1.299 3.672s-.459 2.635-1.299 3.672l-22.2027 27.534c-.5417.674-1.2264 1.218-2.0041 1.592s-1.6286.567-2.4904.567-1.7128-.193-2.4905-.567-1.4624-.918-2.0041-1.592l-22.2031-27.534c-.8419-1.036-1.3029-2.332-1.3052-3.67-.0024-1.337.4541-2.635 1.2924-3.674zm34.4989-43.0289 22.2098-27.5278c.541-.6743 1.226-1.2182 2.004-1.5918s1.628-.5675 2.49-.5675 1.713.1939 2.491.5675c.777.3736 1.462.9175 2.004 1.5918l22.203 27.5278c.842 1.0376 1.301 2.3358 1.301 3.6751s-.459 2.6374-1.301 3.6751l-22.203 27.5278c-.542.6743-1.227 1.2181-2.004 1.5917-.778.3736-1.629.5676-2.491.5676s-1.712-.194-2.49-.5676-1.463-.9174-2.004-1.5917l-22.2034-27.5278c-.8426-1.0369-1.3035-2.3347-1.3047-3.674-.0011-1.3392.4574-2.6378 1.2983-3.6762z"/></g></svg>

<svg width="250" height="250" viewBox="0 0 250 250" fill="none" xmlns="http://www.w3.org/2000/svg">
<rect width="250" height="250" rx="125" fill="white"/>
<g clip-path="url(#clip0_50_11877)">
<path opacity="0.62" d="M98.2958 171.289L120.505 143.761C121.047 143.087 121.732 142.543 122.509 142.169C123.287 141.795 124.138 141.602 125 141.602C125.862 141.602 126.713 141.795 127.49 142.169C128.268 142.543 128.953 143.087 129.494 143.761L151.698 171.289C152.539 172.326 152.999 173.624 152.999 174.964C152.999 176.303 152.539 177.601 151.698 178.639L129.494 206.167C128.953 206.841 128.268 207.385 127.49 207.758C126.713 208.132 125.862 208.326 125 208.326C124.138 208.326 123.287 208.132 122.509 207.758C121.732 207.385 121.047 206.841 120.505 206.167L98.3022 178.639C97.4596 177.602 96.9987 176.304 96.9976 174.965C96.9964 173.626 97.455 172.327 98.2958 171.289Z" fill="#1BA5F8"/>
<path d="M132.796 103.966L154.999 76.4319C155.541 75.7577 156.226 75.2138 157.003 74.8402C157.781 74.4666 158.632 74.2726 159.494 74.2726C160.356 74.2726 161.207 74.4666 161.984 74.8402C162.762 75.2138 163.447 75.7577 163.988 76.4319L186.204 103.966C187.044 105.003 187.503 106.3 187.503 107.638C187.503 108.976 187.044 110.273 186.204 111.31L164.001 138.844C163.459 139.518 162.775 140.062 161.997 140.436C161.219 140.81 160.368 141.003 159.507 141.003C158.645 141.003 157.794 140.81 157.016 140.436C156.239 140.062 155.554 139.518 155.012 138.844L132.809 111.31C131.967 110.274 131.506 108.978 131.504 107.64C131.501 106.303 131.958 105.005 132.796 103.966ZM63.7983 103.966L86.0014 76.4319C86.5431 75.7577 87.2278 75.2138 88.0055 74.8402C88.7832 74.4666 89.6341 74.2726 90.4959 74.2726C91.3577 74.2726 92.2087 74.4666 92.9863 74.8402C93.764 75.2138 94.4488 75.7577 94.9905 76.4319L117.206 103.966C118.046 105.003 118.505 106.3 118.505 107.638C118.505 108.976 118.046 110.273 117.206 111.31L95.0033 138.844C94.4616 139.518 93.7769 140.062 92.9992 140.436C92.2215 140.81 91.3706 141.003 90.5088 141.003C89.647 141.003 88.796 140.81 88.0183 140.436C87.2406 140.062 86.5559 139.518 86.0142 138.844L63.8111 111.31C62.9692 110.274 62.5082 108.978 62.5059 107.64C62.5035 106.303 62.96 105.005 63.7983 103.966ZM98.2972 60.9371L120.507 33.4093C121.048 32.735 121.733 32.1911 122.511 31.8175C123.289 31.4439 124.139 31.25 125.001 31.25C125.863 31.25 126.714 31.4439 127.492 31.8175C128.269 32.1911 128.954 32.735 129.496 33.4093L151.699 60.9371C152.541 61.9747 153 63.2729 153 64.6122C153 65.9515 152.541 67.2496 151.699 68.2873L129.496 95.8151C128.954 96.4894 128.269 97.0332 127.492 97.4068C126.714 97.7804 125.863 97.9744 125.001 97.9744C124.139 97.9744 123.289 97.7804 122.511 97.4068C121.733 97.0332 121.048 96.4894 120.507 95.8151L98.3036 68.2873C97.461 67.2504 97.0001 65.9526 96.9989 64.6133C96.9978 63.2741 97.4563 61.9755 98.2972 60.9371Z" fill="#1BA5F8"/>
</g>
<defs>
<clipPath id="clip0_50_11877">
<rect width="125" height="177.083" fill="white" transform="translate(62.5 31.25)"/>
</clipPath>
</defs>
</svg>
